X:1
T: John of Paris
C:
R:Jig
Q:180
K:A
M:6/8
L:1/16
|:ed|c4c2 c2B2c2|e4c2 c2B2c2|d4f2 a4f2|e4c2 c2B2c2|
d4B2 B2A2B2|c4A2 A2G2A2|B4f2 e4d2|c4A2 A4e2|
e4d2 c2d2e2|f4g2 a4b2|c'4b2 a2g2f2|e4d2 c2d2e2|
f4f2 f2d2B2|e4e2 e2c2A2|d4B2 c4B2|A6A4:|
